!!!COM: Palestrina, Giovanni Perluigi da
!!!OPR: Missa Dies sanctificatus
!!!OMD: Benedictus
!!!OTL: Hosanna
**kern	**kern	**kern	**kern
*Ibass	*Itenor	*Icalto	*Icant
!Bassus	!Tenor	!Altus	!Cantus
*clefF4	*clefGv2	*clefG2	*clefG2
*k[]	*k[]	*k[]	*k[]
*G:mix	*G:mix	*G:mix	*G:mix
*M4/2	*M4/2	*M4/2	*M4/2
=39	=39	=39	=39
1A	1r	0r	0r
[1c	1e	.	.
=40	=40	=40	=40
2c]	1.g	0r	0r
2B	.	.	.
1A	.	.	.
.	2f	.	.
=41	=41	=41	=41
2G	2.e	0r	0r
2.A	.	.	.
.	4d	.	.
.	4c	.	.
4G	4B	.	.
2E	[2e	.	.
=42	=42	=42	=42
1F	2e]	1a	1r
.	2d	.	.
2.C	1e	[1cc	1ee
4D	.	.	.
=43	=43	=43	=43
1E	2e	2cc]	1.gg
.	2e	2b	.
1r	2c	1a	.
.	2d	.	2ff
=44	=44	=44	=44
0r	2e	2g	2.ee
.	2.A	2.a	.
.	.	.	4dd
.	.	.	4cc
.	4B	4g	4b
.	2c	2e	[2ee
=45	=45	=45	=45
1r	1d	1f	2ee]
.	.	.	2dd
1A	2.c	2e	2ee
.	.	2e	[2cc
.	4d	.	.
=46	=46	=46	=46
1.c	1.e	4A	4cc]
.	.	4B	4b
.	.	4c	2g
.	.	4d	.
.	.	4e	2a
.	.	4f#	.
2B	2d	[2g	2b
=47	=47	=47	=47
2A	1c	2g]	1cc
2A	.	2f#	.
4G	2r	1g	1b
4A	.	.	.
4B	2d	.	.
4c	.	.	.
=48	=48	=48	=48
1d	1.f	1r	2r
.	.	.	2a
1A	.	2r	[1cc
.	2e	2e	.
=49	=49	=49	=49
0r	1d	1f	2cc]
.	.	.	2b
.	2c	2e	2.a
.	[2d	2d	.
.	.	.	4g
=50	=50	=50	=50
1r	4d]	1a	4f
.	4c	.	4e
.	2A	.	1a
2r	1B-	1d	.
[2d	.	.	2g
=51	=51	=51	=51
2d]	2A	1e	1a
2c#	2A	.	.
1d	[1f	2r	1a
.	.	2a	.
=52	=52	=52	=52
2A	2f]	1.cc	1r
2c	2e	.	.
1G	[1d	.	2r
.	.	2b	2dd
=53	=53	=53	=53
1D	2d]	1a	1.ff
.	2A	.	.
1r	1c	2g	.
.	.	[2cc	2ee
=54	=54	=54	=54
0r	1G	2cc]	1dd
.	.	2b	.
.	2r	4a	2cc
.	.	4g	.
.	2d	4f	[2dd
.	.	4e	.
=55	=55	=55	=55
1r	1f	2d	4dd]
.	.	.	4cc
.	.	1a	2a
2r	2.e	.	1b
2E	.	2g#	.
.	4d	.	.
=56	=56	=56	=56
2.F	2c	0a	1a
.	1f	.	.
4E	.	.	.
2D	.	.	2r
2C#	2e	.	2ee
=57	=57	=57	=57
4D	1d	2r	1ff
4E	.	.	.
4F	.	2a	.
4G	.	.	.
4A	2c	[1cc	1ee
4B	.	.	.
4c	2A	.	.
4d	.	.	.
=58	=58	=58	=58
2e	2c	2cc]	2r
1d	2G	2b	2dd
.	2A	[1a	2ff
2c#	2A	.	[2ee
=59	=59	=59	=59
2d	1.f	2a]	2ee]
2B-	.	2d	2.dd
1A	.	2.a	.
.	.	.	4cc
.	2e	.	2cc
.	.	4g	.
=60	=60	=60	=60
1D	1d	4f	2b-
.	.	4e	.
.	.	2f	2.a
2r	2c#	2e	.
.	.	.	4g
2D	[2d	4a	4f
.	.	4g	4g
=61	=61	=61	=61
2F	4d]	4f	4a
.	4c	4g	4b
2F	2A	2.a	4cc
.	.	.	4dd
2E	2B	.	1ee
.	.	4g	.
2C	2c	[2g	.
=62	=62	=62	=62
1D	1A	2g]	1dd
.	.	2f#	.
[1G	[1G	[1g	[1b
=63	=63	=63	=63
1G_	1G_	1g_	1b_
1G_	1G_	1g_	1b_
=64	=64	=64	=64
1G]	1G]	1g]	1b]
==	==	==	==
*-	*-	*-	*-
!!!CDT: 1525/^1526/-1594/2/2
!!!OCY: Italia
!!!AGN: Mass (Parody)
!!!AST: renaissance, vocal
!!!ASW: Motet 1563 (Palestrina)
!!!PWK: Masses, Book 6
!!!RNB: Cadence finals: D,A,C
!!!YOR: Le Opere Complete, v. 21, p. 1
!!!YOO: Rome, Italy: Fratelli Scalera
!!!END: 1992//
!!!EED: John Miller
!!!YEC: Copyright 2000, John Miller
!!!YEN: United States of America
!!!YEM: Rights to all derivative electronic formats reserved.
!!!YEM: Refer to licensing agreement for further details.
!!!YEM: This file must be accompanied by the licensing agreement.
!!!YEM: A copy of the licensing agreement may be found at http://www.music-cog.ohio-state.edu/HumdrumDatabases/Palestrina/license.txt
!!!EMD: converted to Humdrum by Bret Aarden
